agir/activity/components/images/activitymergerannouncement.svg

<svg width="80" height="80" viewBox="0 0 80 80" fill="none" xmlns="http://www.w3.org/2000/svg">
<circle cx="40" cy="40" r="40" fill="white"/>
<path d="M46.538 62.6909C49.1393 62.8124 51.3481 60.8009 51.4697 58.1973L42.0466 57.7571C41.925 60.3607 43.9366 62.5694 46.538 62.6909ZM62.917 52.4055C61.5654 50.81 59.0104 48.3855 59.3623 40.8509C59.6297 35.1281 55.8311 30.3595 50.4731 28.9829L50.5448 27.4479C50.6056 26.1465 49.6002 25.0418 48.2995 24.981C46.9988 24.9203 45.8948 25.9265 45.834 27.2279L45.7623 28.7628C40.2994 29.634 36.0728 34.0277 35.8055 39.7505C35.4535 47.2851 32.6835 49.4608 31.1891 50.9234C30.725 51.3778 30.5026 51.9365 30.4803 52.4927C30.432 53.701 31.3262 54.8943 32.7344 54.9601L61.0021 56.2805C62.4103 56.3463 63.4126 55.2417 63.4764 54.0341C63.5061 53.4782 63.3367 52.9005 62.917 52.4055Z" fill="#F4ED0F"/>
<path d="M42.1039 57.8636C44.661 57.3705 46.3352 54.8963 45.8417 52.337L36.579 54.1233C37.0726 56.6825 39.5468 58.3568 42.1039 57.8636ZM55.6076 44.0177C53.9191 42.7845 50.8658 41.0282 49.4376 33.6218C48.3528 27.9964 43.5401 24.2539 38.0087 24.1747L37.7177 22.6659C37.471 21.3866 36.2342 20.5491 34.9557 20.7956C33.6771 21.0422 32.8404 22.2796 33.0871 23.5589L33.3781 25.0676C28.2727 27.198 25.1969 32.4618 26.2817 38.0872C27.7099 45.4936 25.5287 48.2593 24.4198 50.032C24.0755 50.5827 23.9905 51.1781 24.0996 51.724C24.3365 52.9098 25.4861 53.8595 26.8703 53.5926L54.6569 48.2342C56.0411 47.9673 56.7558 46.658 56.5341 45.4693C56.4323 44.922 56.1319 44.4002 55.6076 44.0177Z" fill="#571AFF"/>
</svg>

<svg width="80" height="80" fill="none" xmlns="http://www.w3.org/2000/svg"><circle cx="40" cy="40" r="40" fill="#fff"/><path d="M46.538 62.69a4.718 4.718 0 0 0 4.932-4.493l-9.423-.44a4.718 4.718 0 0 0 4.491 4.934Zm16.379-10.284c-1.352-1.596-3.907-4.02-3.555-11.555.268-5.723-3.53-10.491-8.889-11.868l.072-1.535a2.359 2.359 0 1 0-4.711-.22l-.072 1.535c-5.463.871-9.69 5.265-9.956 10.988-.352 7.534-3.122 9.71-4.617 11.172a2.304 2.304 0 0 0-.709 1.57c-.048 1.208.846 2.401 2.254 2.467l28.268 1.32c1.408.066 2.41-1.038 2.474-2.246a2.302 2.302 0 0 0-.559-1.628Z" fill="#F4ED0F"/><path d="M42.104 57.864a4.718 4.718 0 0 0 3.738-5.527l-9.263 1.786a4.718 4.718 0 0 0 5.525 3.74Zm13.504-13.846c-1.689-1.233-4.742-2.99-6.17-10.396-1.085-5.626-5.898-9.368-11.43-9.447l-.29-1.51a2.359 2.359 0 1 0-4.63.894l.29 1.509c-5.105 2.13-8.181 7.394-7.096 13.02 1.428 7.406-.753 10.171-1.862 11.944a2.304 2.304 0 0 0-.32 1.692c.236 1.186 1.386 2.136 2.77 1.869l27.787-5.359c1.384-.267 2.099-1.576 1.877-2.765a2.303 2.303 0 0 0-.926-1.451Z" fill="#571AFF"/></svg>
